src/assets/images/efp-logo.svg

<svg xmlns="http://www.w3.org/2000/svg" width="512" height="512" fill="none"><rect width="512" height="512" fill="url(#a)" rx="40"/><path fill="#333" d="m167.68 258.56 87.68-145.92 87.04 145.92-87.04 53.12-87.68-53.12Z"/><path fill="#333" d="m255.36 327.68-87.68-53.12 87.68 123.52 87.04-123.52-87.04 53.12ZM367.36 341.76H342.4v37.12h-34.56v23.04h34.56v38.4h24.96v-38.4h33.92v-23.04h-33.92v-37.12Z"/><defs><linearGradient id="a" x1="256" x2="512" y1="256" y2="512" gradientUnits="userSpaceOnUse"><stop stop-color="#FFE067"/><stop offset="1" stop-color="#FFF7D9"/></linearGradient></defs></svg>

<svg width="512" height="512" viewBox="0 0 512 512" fill="none" xmlns="http://www.w3.org/2000/svg">
<rect width="512" height="512" rx="40" fill="url(#paint0_linear_965_4162)"/>
<path d="M167.68 258.56L255.36 112.64L342.4 258.56L255.36 311.68L167.68 258.56Z" fill="#333333"/>
<path d="M255.36 327.68L167.68 274.56L255.36 398.08L342.4 274.56L255.36 327.68Z" fill="#333333"/>
<path d="M367.36 341.76H342.4V378.88H307.84V401.92H342.4V440.32H367.36V401.92H401.28V378.88H367.36V341.76Z" fill="#333333"/>
<defs>
<linearGradient id="paint0_linear_965_4162" x1="256" y1="256" x2="512" y2="512" gradientUnits="userSpaceOnUse">
<stop stop-color="#FFE067"/>
<stop offset="1" stop-color="#FFF7D9"/>
</linearGradient>
</defs>
</svg>
